!!!OTL: Old MacDonald Had a Farm
!!!COM: unknown
!!!ODT: unknown
!!!YOR: The Folksong Fake Book
!!!YOY: 2000
!!!AST: Children's song
!!!YEC: Brian Luke, 2001
**kern	**harm
*k[f#]	*k[f#]
*M4/4	*M4/4
*G:	*G:
*>A	*>A
=1	=1
4g	I
4g	.
4g	.
4d	.
=2	=2
4e	IV
4e	.
2d	I
=3	=3
4b	.
4b	.
4a	V7
4a	.
=4	=4
2.g	I;
*>A	*>A
4d	.
=5	=5
4g	I
4g	.
4g	.
4d	.
=6	=6
4e	IV
4e	.
2d	I
=7	=7
4b	.
4b	.
4a	V7
4a	.
=8	=8
2.g	I;
*>B	*>B
8d	I
8d	.
=9	=9
4g	.
4g	.
4g	.
8d	.
8d	.
=10	=10
4g	.
4g	.
2g	.
=11	=11
8g	.
8g	.
4g	.
8g	.
8g	.
4g	.
=12	=12
8g	.
8g	.
8g	.
8g	.
4g	.
4g	.
=13	=13
*>A	*>A
4g	I
4g	.
4g	.
4d	.
=14	=14
4e	IV
4e	.
2d	I
=15	=15
4b	.
4b	.
4a	V7
4a	.
=16	=16
1g	I;
*-	*-
